; G-Code generated by Simplify3D(R) Version 4.1.2
; Feb 24, 2020 at 8:28:31 PM
; Settings Summary
;   processName,Process1
;   applyToModels,Esquinera fleje,Esquinera fleje(2),Esquinera fleje(3),Esquinera fleje(4),Esquinera fleje(5),Esquinera fleje(6),Esquinera fleje(7),Esquinera fleje(8),Esquinera fleje(9),Esquinera fleje(10),Esquinera fleje(11),Esquinera fleje(12)
;   profileName,P3Steel 320x320 DUET3D
;   profileVersion,2019-12-31 01:42:54
;   baseProfile,Default
;   printMaterial,PLA
;   printQuality,Medium
;   printExtruders,
;   extruderName,Primary Extruder
;   extruderToolheadNumber,0
;   extruderDiameter,0.4
;   extruderAutoWidth,1
;   extruderWidth,0.48
;   extrusionMultiplier,0.98
;   extruderUseRetract,1
;   extruderRetractionDistance,1.4
;   extruderExtraRestartDistance,0
;   extruderRetractionZLift,0.4
;   extruderRetractionSpeed,2400
;   extruderUseCoasting,0
;   extruderCoastingDistance,0.3
;   extruderUseWipe,1
;   extruderWipeDistance,1.6
;   primaryExtruder,0
;   layerHeight,0.2
;   topSolidLayers,3
;   bottomSolidLayers,3
;   perimeterOutlines,3
;   printPerimetersInsideOut,1
;   startPointOption,3
;   startPointOriginX,100
;   startPointOriginY,300
;   sequentialIslands,0
;   spiralVaseMode,0
;   firstLayerHeightPercentage,125
;   firstLayerWidthPercentage,95
;   firstLayerUnderspeed,0.5
;   useRaft,0
;   raftExtruder,0
;   raftTopLayers,1
;   raftBaseLayers,1
;   raftOffset,3
;   raftSeparationDistance,0.14
;   raftTopInfill,100
;   aboveRaftSpeedMultiplier,0.3
;   useSkirt,1
;   skirtExtruder,0
;   skirtLayers,1
;   skirtOutlines,1
;   skirtOffset,3
;   usePrimePillar,0
;   primePillarExtruder,999
;   primePillarWidth,12
;   primePillarLocation,7
;   primePillarSpeedMultiplier,1
;   useOozeShield,0
;   oozeShieldExtruder,999
;   oozeShieldOffset,2
;   oozeShieldOutlines,1
;   oozeShieldSidewallShape,1
;   oozeShieldSidewallAngle,30
;   oozeShieldSpeedMultiplier,1
;   infillExtruder,0
;   internalInfillPattern,Rectilinear
;   externalInfillPattern,Rectilinear
;   infillPercentage,20
;   outlineOverlapPercentage,25
;   infillExtrusionWidthPercentage,100
;   minInfillLength,2
;   infillLayerInterval,1
;   internalInfillAngles,45,-45
;   overlapInternalInfillAngles,0
;   externalInfillAngles,45,-45
;   generateSupport,0
;   supportExtruder,0
;   supportInfillPercentage,45
;   supportExtraInflation,0
;   supportBaseLayers,0
;   denseSupportExtruder,0
;   denseSupportLayers,0
;   denseSupportInfillPercentage,70
;   supportLayerInterval,1
;   supportHorizontalPartOffset,0.3
;   supportUpperSeparationLayers,1
;   supportLowerSeparationLayers,1
;   supportType,0
;   supportGridSpacing,4
;   maxOverhangAngle,89
;   supportAngles,0
;   temperatureName,Primary Extruder,Heated Bed
;   temperatureNumber,0,1
;   temperatureSetpointCount,1,1
;   temperatureSetpointLayers,1,1
;   temperatureSetpointTemperatures,205,50
;   temperatureStabilizeAtStartup,1,1
;   temperatureHeatedBed,0,1
;   fanLayers,1,2
;   fanSpeeds,0,100
;   blipFanToFullPower,0
;   adjustSpeedForCooling,1
;   minSpeedLayerTime,15
;   minCoolingSpeedSlowdown,20
;   increaseFanForCooling,0
;   minFanLayerTime,45
;   maxCoolingFanSpeed,100
;   increaseFanForBridging,0
;   bridgingFanSpeed,100
;   use5D,1
;   relativeEdistances,0
;   allowEaxisZeroing,1
;   independentExtruderAxes,0
;   includeM10123,0
;   stickySupport,1
;   applyToolheadOffsets,0
;   gcodeXoffset,0
;   gcodeYoffset,0
;   gcodeZoffset,0
;   overrideMachineDefinition,1
;   machineTypeOverride,0
;   strokeXoverride,320
;   strokeYoverride,320
;   strokeZoverride,420
;   originOffsetXoverride,0
;   originOffsetYoverride,0
;   originOffsetZoverride,0
;   homeXdirOverride,-1
;   homeYdirOverride,-1
;   homeZdirOverride,-1
;   flipXoverride,1
;   flipYoverride,-1
;   flipZoverride,1
;   toolheadOffsets,0,0|0,0|0,0|0,0|0,0|0,0
;   overrideFirmwareConfiguration,0
;   firmwareTypeOverride,RepRap (Marlin/Repetier/Sprinter)
;   GPXconfigOverride,r2
;   baudRateOverride,115200
;   overridePrinterModels,0
;   printerModelsOverride
;   startingGcode,G28 ; home all axes,G1 Z30 F3000,M106 S1 [Enciende ventilador de capa],M190 S[bed1_temperature],M109 S[extruder0_temperature],G29 S1,G92 E0,M106 S0 (Apaga Ventilador de capa ],G1 X0 Y0 Z0.2 F3000 ; go outside printing area,G1 X60.0 E9.0  F1000.0 ; intro line,G1 X100.0 E12.5  F1000.0 ; intro line,G92 E0
;   layerChangeGcode,
;   retractionGcode,
;   toolChangeGcode,
;   endingGcode,G28 X0,G90 ; Posicion Absoluta,G1 Y305 F3600 ; Mueve Y a 305mm,M104 S0 ; turn off extruder,M140 S0 ; turn off bed,M84 ; disable motors,M107 ; turn off fan,
;   exportFileFormat,gcode
;   celebration,0
;   celebrationSong,Star Wars
;   postProcessing,
;   defaultSpeed,3600
;   outlineUnderspeed,0.4
;   solidInfillUnderspeed,0.65
;   supportUnderspeed,0.75
;   rapidXYspeed,5400
;   rapidZspeed,900
;   minBridgingArea,50
;   bridgingExtraInflation,1
;   bridgingExtrusionMultiplier,0.8
;   bridgingSpeedMultiplier,1.2
;   useFixedBridgingAngle,0
;   fixedBridgingAngle,0
;   applyBridgingToPerimeters,0
;   filamentDiameters,1.75|1.75|1.75|1.75|1.75|1.75
;   filamentPricesPerKg,16|16|16|16|16|16
;   filamentDensities,1.25|1.25|1.25|1.25|1.25|1.25
;   useMinPrintHeight,0
;   minPrintHeight,0
;   useMaxPrintHeight,0
;   maxPrintHeight,50
;   useDiaphragm,0
;   diaphragmLayerInterval,20
;   robustSlicing,1
;   mergeAllIntoSolid,0
;   onlyRetractWhenCrossingOutline,1
;   retractBetweenLayers,1
;   useRetractionMinTravel,1
;   retractionMinTravel,3
;   retractWhileWiping,1
;   onlyWipeOutlines,1
;   avoidCrossingOutline,1
;   maxMovementDetourFactor,5
;   toolChangeRetractionDistance,12
;   toolChangeExtraRestartDistance,-0.5
;   toolChangeRetractionSpeed,600
;   externalThinWallType,0
;   internalThinWallType,1
;   thinWallAllowedOverlapPercentage,10
;   singleExtrusionMinLength,1
;   singleExtrusionMinPrintingWidthPercentage,50
;   singleExtrusionMaxPrintingWidthPercentage,200
;   singleExtrusionEndpointExtension,0.2
;   horizontalSizeCompensation,0
G90
M82
M106 S0
G28 ; home all axes
G1 Z30 F3000
M106 S1 [Enciende ventilador de capa]
M190 S50
M109 S205
G29 S1
G92 E0
M106 S0 (Apaga Ventilador de capa ]
G1 X0 Y0 Z0.2 F3000 ; go outside printing area
G1 X60.0 E9.0  F1000.0 ; intro line
G1 X100.0 E12.5  F1000.0 ; intro line
G92 E0
; process Process1
; layer 1, Z = 0.250
T0
G92 E0.0000
G1 E-1.4000 F2400
; feature skirt
; tool H0.250 W0.456
G1 Z0.400 F900
G1 X121.163 Y199.728 F5400
G1 Z0.250 F900
G1 E0.0000 F2400
G92 E0.0000
G1 X119.272 Y197.837 E0.1242 F1800
G1 X119.272 Y187.163 E0.6200
G1 X120.435 Y186.000 E0.6964
G1 X119.272 Y184.837 E0.7728
G1 X119.272 Y174.163 E1.2686
G1 X120.435 Y173.000 E1.3450
G1 X119.272 Y171.837 E1.4213
G1 X119.272 Y161.163 E1.9171
G1 X120.435 Y160.000 E1.9935
G1 X119.272 Y158.837 E2.0699
G1 X119.272 Y148.163 E2.5657
G1 X120.435 Y147.000 E2.6421
G1 X119.272 Y145.837 E2.7185
G1 X119.272 Y135.163 E3.2143
G1 X120.435 Y134.000 E3.2907
G1 X119.272 Y132.837 E3.3671
G1 X119.272 Y122.163 E3.8628
G1 X121.163 Y120.272 E3.9871
G1 X158.837 Y120.272 E5.7369
G1 X160.000 Y121.435 E5.8133
G1 X161.163 Y120.272 E5.8897
G1 X198.837 Y120.272 E7.6396
G1 X200.728 Y122.163 E7.7638
G1 X200.728 Y132.837 E8.2596
G1 X199.565 Y134.000 E8.3360
G1 X200.728 Y135.163 E8.4124
G1 X200.728 Y145.837 E8.9082
G1 X199.565 Y147.000 E8.9845
G1 X200.728 Y148.163 E9.0609
G1 X200.728 Y158.837 E9.5567
G1 X199.565 Y160.000 E9.6331
G1 X200.728 Y161.163 E9.7095
G1 X200.728 Y171.837 E10.2053
G1 X199.565 Y173.000 E10.2817
G1 X200.728 Y174.163 E10.3581
G1 X200.728 Y184.837 E10.8539
G1 X199.565 Y186.000 E10.9303
G1 X200.728 Y187.163 E11.0066
G1 X200.728 Y197.837 E11.5024
G1 X198.837 Y199.728 E11.6266
G1 X161.163 Y199.728 E13.3765
G1 X160.000 Y198.565 E13.4529
G1 X158.837 Y199.728 E13.5293
G1 X121.163 Y199.728 E15.2792
G92 E0.0000
G1 E-1.4000 F2400
; feature inner perimeter
G1 Z0.650 F900
G1 X122.728 Y157.272 F5400
G1 X122.728 Y155.900
G1 X123.640 Y130.360
G1 Z0.250 F900
G1 E0.0000 F2400
G92 E0.0000
G1 X123.640 Y124.640 E0.2657 F1260
G1 X156.360 Y124.640 E1.7855
G1 X156.360 Y130.360 E2.0511
G1 X123.640 Y130.360 E3.5709
G1 X123.184 Y130.816 F5400
G92 E0.0000
G1 X123.184 Y124.184 E0.3080 F1260
G1 X156.816 Y124.184 E1.8702
G1 X156.816 Y130.816 E2.1782
G1 X123.184 Y130.816 E3.7403
; feature outer perimeter
G1 X122.728 Y131.272 F5400
G92 E0.0000
G1 X122.728 Y123.728 E0.3504 F720
G1 X157.272 Y123.728 E1.9549
G1 X157.272 Y131.272 E2.3053
G1 X122.728 Y131.272 E3.9098
G1 X122.728 Y129.672 F720
; feature solid layer
G1 X123.982 Y129.786 F5400
G92 E0.0000
G1 X124.214 Y130.018 E0.0152 F1170
G1 X124.859 Y130.018 E0.0452
G1 X123.982 Y129.141 E0.1028
G1 X123.982 Y128.496 E0.1328
G1 X125.504 Y130.018 E0.2327
G1 X126.149 Y130.018 E0.2627
G1 X123.982 Y127.851 E0.4050
G1 X123.982 Y127.206 E0.4350
G1 X126.794 Y130.018 E0.6196
G1 X127.438 Y130.018 E0.6496
G1 X123.982 Y126.562 E0.8766
G1 X123.982 Y125.917 E0.9066
G1 X128.083 Y130.018 E1.1760
G1 X128.728 Y130.018 E1.2060
G1 X123.982 Y125.272 E1.5177
G1 X123.982 Y124.982 E1.5312
G1 X124.337 Y124.982 E1.5477
G1 X129.373 Y130.018 E1.8785
G1 X130.018 Y130.018 E1.9084
G1 X124.982 Y124.982 E2.2392
G1 X125.627 Y124.982 E2.2692
G1 X130.663 Y130.018 E2.6000
G1 X131.308 Y130.018 E2.6299
G1 X126.272 Y124.982 E2.9607
G1 X126.917 Y124.982 E2.9907
G1 X131.953 Y130.018 E3.3215
G1 X132.598 Y130.018 E3.3514
G1 X127.562 Y124.982 E3.6822
G1 X128.206 Y124.982 E3.7122
G1 X133.242 Y130.018 E4.0430
G1 X133.887 Y130.018 E4.0729
G1 X128.851 Y124.982 E4.4037
G1 X129.496 Y124.982 E4.4337
G1 X134.532 Y130.018 E4.7645
G1 X135.177 Y130.018 E4.7945
G1 X130.141 Y124.982 E5.1253
G1 X130.786 Y124.982 E5.1552
G1 X135.822 Y130.018 E5.4860
G1 X136.467 Y130.018 E5.5160
G1 X131.431 Y124.982 E5.8468
G1 X132.076 Y124.982 E5.8767
G1 X137.112 Y130.018 E6.2075
G1 X137.757 Y130.018 E6.2375
G1 X132.721 Y124.982 E6.5683
G1 X133.365 Y124.982 E6.5982
G1 X138.401 Y130.018 E6.9290
G1 X139.046 Y130.018 E6.9590
G1 X134.010 Y124.982 E7.2898
G1 X134.655 Y124.982 E7.3197
G1 X139.691 Y130.018 E7.6505
G1 X140.336 Y130.018 E7.6805
G1 X135.300 Y124.982 E8.0113
G1 X135.945 Y124.982 E8.0412
G1 X140.981 Y130.018 E8.3720
G1 X141.626 Y130.018 E8.4020
G1 X136.590 Y124.982 E8.7328
G1 X137.235 Y124.982 E8.7627
G1 X142.271 Y130.018 E9.0935
G1 X142.916 Y130.018 E9.1235
G1 X137.880 Y124.982 E9.4543
G1 X138.525 Y124.982 E9.4842
G1 X143.561 Y130.018 E9.8150
G1 X144.205 Y130.018 E9.8450
G1 X139.169 Y124.982 E10.1758
G1 X139.814 Y124.982 E10.2058
G1 X144.850 Y130.018 E10.5366
G1 X145.495 Y130.018 E10.5665
G1 X140.459 Y124.982 E10.8973
G1 X141.104 Y124.982 E10.9273
G1 X146.140 Y130.018 E11.2581
G1 X146.785 Y130.018 E11.2880
G1 X141.749 Y124.982 E11.6188
G1 X142.394 Y124.982 E11.6488
G1 X147.430 Y130.018 E11.9796
G1 X148.075 Y130.018 E12.0095
G1 X143.039 Y124.982 E12.3403
G1 X143.684 Y124.982 E12.3703
G1 X148.720 Y130.018 E12.7011
G1 X149.364 Y130.018 E12.7310
G1 X144.328 Y124.982 E13.0618
G1 X144.973 Y124.982 E13.0918
G1 X150.009 Y130.018 E13.4226
G1 X150.654 Y130.018 E13.4525
G1 X145.618 Y124.982 E13.7833
G1 X146.263 Y124.982 E13.8133
G1 X151.299 Y130.018 E14.1441
G1 X151.944 Y130.018 E14.1740
G1 X146.908 Y124.982 E14.5048
G1 X147.553 Y124.982 E14.5348
G1 X152.589 Y130.018 E14.8656
G1 X153.234 Y130.018 E14.8956
G1 X148.198 Y124.982 E15.2264
G1 X148.843 Y124.982 E15.2563
G1 X153.879 Y130.018 E15.5871
G1 X154.524 Y130.018 E15.6171
G1 X149.488 Y124.982 E15.9479
G1 X150.132 Y124.982 E15.9778
G1 X155.168 Y130.018 E16.3086
G1 X155.813 Y130.018 E16.3386
G1 X150.777 Y124.982 E16.6694
G1 X151.422 Y124.982 E16.6993
G1 X156.018 Y129.578 E17.0012
G1 X156.018 Y128.933 E17.0312
G1 X152.067 Y124.982 E17.2907
G1 X152.712 Y124.982 E17.3206
G1 X156.018 Y128.288 E17.5378
G1 X156.018 Y127.643 E17.5678
G1 X153.357 Y124.982 E17.7426
G1 X154.002 Y124.982 E17.7725
G1 X156.018 Y126.998 E17.9050
G1 X156.018 Y126.353 E17.9349
G1 X154.647 Y124.982 E18.0250
G1 X155.291 Y124.982 E18.0550
G1 X156.018 Y125.709 E18.1027
G1 X156.018 Y125.064 E18.1326
G1 X155.936 Y124.982 E18.1380
G92 E0.0000
G1 E-1.4000 F2400
; feature inner perimeter
G1 Z0.650 F900
G1 X157.272 Y125.914 F5400
G1 X157.272 Y131.272
G1 X162.728 Y131.272
G1 X162.728 Y129.723
G1 X163.640 Y130.360
G1 Z0.250 F900
G1 E0.0000 F2400
G92 E0.0000
G1 X163.640 Y124.640 E0.2657 F1260
G1 X196.360 Y124.640 E1.7855
G1 X196.360 Y130.360 E2.0511
G1 X163.640 Y130.360 E3.5709
G1 X163.184 Y130.816 F5400
G92 E0.0000
G1 X163.184 Y124.184 E0.3080 F1260
G1 X196.816 Y124.184 E1.8702
G1 X196.816 Y130.816 E2.1782
G1 X163.184 Y130.816 E3.7403
; feature outer perimeter
G1 X162.728 Y131.272 F5400
G92 E0.0000
G1 X162.728 Y123.728 E0.3504 F720
G1 X197.272 Y123.728 E1.9549
G1 X197.272 Y131.272 E2.3053
G1 X162.728 Y131.272 E3.9098
G1 X162.728 Y129.672 F720
; feature solid layer
G1 X163.982 Y129.803 F5400
G92 E0.0000
G1 X164.197 Y130.018 E0.0141 F1170
G1 X164.842 Y130.018 E0.0441
G1 X163.982 Y129.158 E0.1005
G1 X163.982 Y128.514 E0.1305
G1 X165.486 Y130.018 E0.2293
G1 X166.131 Y130.018 E0.2593
G1 X163.982 Y127.869 E0.4004
G1 X163.982 Y127.224 E0.4304
G1 X166.776 Y130.018 E0.6139
G1 X167.421 Y130.018 E0.6439
G1 X163.982 Y126.579 E0.8698
G1 X163.982 Y125.934 E0.8998
G1 X168.066 Y130.018 E1.1680
G1 X168.711 Y130.018 E1.1980
G1 X163.982 Y125.289 E1.5086
G1 X163.982 Y124.982 E1.5229
G1 X164.320 Y124.982 E1.5386
G1 X169.356 Y130.018 E1.8694
G1 X170.001 Y130.018 E1.8993
G1 X164.965 Y124.982 E2.2301
G1 X165.610 Y124.982 E2.2601
G1 X170.646 Y130.018 E2.5909
G1 X171.290 Y130.018 E2.6208
G1 X166.254 Y124.982 E2.9516
G1 X166.899 Y124.982 E2.9816
G1 X171.935 Y130.018 E3.3124
G1 X172.580 Y130.018 E3.3423
G1 X167.544 Y124.982 E3.6731
G1 X168.189 Y124.982 E3.7031
G1 X173.225 Y130.018 E4.0339
G1 X173.870 Y130.018 E4.0638
G1 X168.834 Y124.982 E4.3946
G1 X169.479 Y124.982 E4.4246
G1 X174.515 Y130.018 E4.7554
G1 X175.160 Y130.018 E4.7853
G1 X170.124 Y124.982 E5.1161
G1 X170.769 Y124.982 E5.1461
G1 X175.805 Y130.018 E5.4769
G1 X176.449 Y130.018 E5.5068
G1 X171.413 Y124.982 E5.8376
G1 X172.058 Y124.982 E5.8676
G1 X177.094 Y130.018 E6.1984
G1 X177.739 Y130.018 E6.2283
G1 X172.703 Y124.982 E6.5591
G1 X173.348 Y124.982 E6.5891
G1 X178.384 Y130.018 E6.9199
G1 X179.029 Y130.018 E6.9499
G1 X173.993 Y124.982 E7.2807
G1 X174.638 Y124.982 E7.3106
G1 X179.674 Y130.018 E7.6414
G1 X180.319 Y130.018 E7.6714
G1 X175.283 Y124.982 E8.0022
G1 X175.928 Y124.982 E8.0321
G1 X180.964 Y130.018 E8.3629
G1 X181.609 Y130.018 E8.3929
G1 X176.573 Y124.982 E8.7237
G1 X177.217 Y124.982 E8.7536
G1 X182.253 Y130.018 E9.0844
G1 X182.898 Y130.018 E9.1144
G1 X177.862 Y124.982 E9.4452
G1 X178.507 Y124.982 E9.4751
G1 X183.543 Y130.018 E9.8059
G1 X184.188 Y130.018 E9.8359
G1 X179.152 Y124.982 E10.1667
G1 X179.797 Y124.982 E10.1966
G1 X184.833 Y130.018 E10.5274
G1 X185.478 Y130.018 E10.5574
G1 X180.442 Y124.982 E10.8882
G1 X181.087 Y124.982 E10.9181
G1 X186.123 Y130.018 E11.2489
G1 X186.768 Y130.018 E11.2789
G1 X181.732 Y124.982 E11.6097
G1 X182.376 Y124.982 E11.6397
G1 X187.412 Y130.018 E11.9705
G1 X188.057 Y130.018 E12.0004
G1 X183.021 Y124.982 E12.3312
G1 X183.666 Y124.982 E12.3612
G1 X188.702 Y130.018 E12.6920
G1 X189.347 Y130.018 E12.7219
G1 X184.311 Y124.982 E13.0527
G1 X184.956 Y124.982 E13.0827
G1 X189.992 Y130.018 E13.4135
G1 X190.637 Y130.018 E13.4434
G1 X185.601 Y124.982 E13.7742
G1 X186.246 Y124.982 E13.8042
G1 X191.282 Y130.018 E14.1350
G1 X191.927 Y130.018 E14.1649
G1 X186.891 Y124.982 E14.4957
G1 X187.536 Y124.982 E14.5257
G1 X192.572 Y130.018 E14.8565
G1 X193.216 Y130.018 E14.8864
G1 X188.180 Y124.982 E15.2172
G1 X188.825 Y124.982 E15.2472
G1 X193.861 Y130.018 E15.5780
G1 X194.506 Y130.018 E15.6079
G1 X189.470 Y124.982 E15.9387
G1 X190.115 Y124.982 E15.9687
G1 X195.151 Y130.018 E16.2995
G1 X195.796 Y130.018 E16.3294
G1 X190.760 Y124.982 E16.6602
G1 X191.405 Y124.982 E16.6902
G1 X196.018 Y129.595 E16.9932
G1 X196.018 Y128.950 E17.0232
G1 X192.050 Y124.982 E17.2838
G1 X192.695 Y124.982 E17.3138
G1 X196.018 Y128.305 E17.5321
G1 X196.018 Y127.661 E17.5621
G1 X193.339 Y124.982 E17.7380
G1 X193.984 Y124.982 E17.7680
G1 X196.018 Y127.016 E17.9015
G1 X196.018 Y126.371 E17.9315
