; G-Code generated by Simplify3D(R) Version 4.1.2
; Feb 24, 2020 at 2:04:30 PM
; Settings Summary
;   processName,Process1
;   applyToModels,xyzCalibration_cube
;   profileName,P3Steel 320x320 DUET3D
;   profileVersion,2019-12-31 01:42:54
;   baseProfile,Default
;   printMaterial,PLA
;   printQuality,Medium
;   printExtruders,
;   extruderName,Primary Extruder
;   extruderToolheadNumber,0
;   extruderDiameter,0.4
;   extruderAutoWidth,1
;   extruderWidth,0.48
;   extrusionMultiplier,0.98
;   extruderUseRetract,1
;   extruderRetractionDistance,1.4
;   extruderExtraRestartDistance,0
;   extruderRetractionZLift,0.4
;   extruderRetractionSpeed,2400
;   extruderUseCoasting,0
;   extruderCoastingDistance,0.3
;   extruderUseWipe,1
;   extruderWipeDistance,2
;   primaryExtruder,0
;   layerHeight,0.2
;   topSolidLayers,3
;   bottomSolidLayers,3
;   perimeterOutlines,3
;   printPerimetersInsideOut,1
;   startPointOption,3
;   startPointOriginX,100
;   startPointOriginY,300
;   sequentialIslands,0
;   spiralVaseMode,0
;   firstLayerHeightPercentage,125
;   firstLayerWidthPercentage,95
;   firstLayerUnderspeed,0.5
;   useRaft,0
;   raftExtruder,0
;   raftTopLayers,1
;   raftBaseLayers,1
;   raftOffset,3
;   raftSeparationDistance,0.14
;   raftTopInfill,100
;   aboveRaftSpeedMultiplier,0.3
;   useSkirt,1
;   skirtExtruder,0
;   skirtLayers,1
;   skirtOutlines,1
;   skirtOffset,3
;   usePrimePillar,0
;   primePillarExtruder,999
;   primePillarWidth,12
;   primePillarLocation,7
;   primePillarSpeedMultiplier,1
;   useOozeShield,0
;   oozeShieldExtruder,999
;   oozeShieldOffset,2
;   oozeShieldOutlines,1
;   oozeShieldSidewallShape,1
;   oozeShieldSidewallAngle,30
;   oozeShieldSpeedMultiplier,1
;   infillExtruder,0
;   internalInfillPattern,Rectilinear
;   externalInfillPattern,Rectilinear
;   infillPercentage,20
;   outlineOverlapPercentage,25
;   infillExtrusionWidthPercentage,100
;   minInfillLength,2
;   infillLayerInterval,1
;   internalInfillAngles,45,-45
;   overlapInternalInfillAngles,0
;   externalInfillAngles,45,-45
;   generateSupport,0
;   supportExtruder,0
;   supportInfillPercentage,45
;   supportExtraInflation,0
;   supportBaseLayers,0
;   denseSupportExtruder,0
;   denseSupportLayers,0
;   denseSupportInfillPercentage,70
;   supportLayerInterval,1
;   supportHorizontalPartOffset,0.3
;   supportUpperSeparationLayers,1
;   supportLowerSeparationLayers,1
;   supportType,0
;   supportGridSpacing,4
;   maxOverhangAngle,89
;   supportAngles,0
;   temperatureName,Primary Extruder,Heated Bed
;   temperatureNumber,0,1
;   temperatureSetpointCount,1,1
;   temperatureSetpointLayers,1,1
;   temperatureSetpointTemperatures,205,50
;   temperatureStabilizeAtStartup,1,1
;   temperatureHeatedBed,0,1
;   fanLayers,1,2
;   fanSpeeds,0,100
;   blipFanToFullPower,0
;   adjustSpeedForCooling,1
;   minSpeedLayerTime,15
;   minCoolingSpeedSlowdown,20
;   increaseFanForCooling,0
;   minFanLayerTime,45
;   maxCoolingFanSpeed,100
;   increaseFanForBridging,0
;   bridgingFanSpeed,100
;   use5D,1
;   relativeEdistances,0
;   allowEaxisZeroing,1
;   independentExtruderAxes,0
;   includeM10123,0
;   stickySupport,1
;   applyToolheadOffsets,0
;   gcodeXoffset,0
;   gcodeYoffset,0
;   gcodeZoffset,0
;   overrideMachineDefinition,1
;   machineTypeOverride,0
;   strokeXoverride,320
;   strokeYoverride,320
;   strokeZoverride,420
;   originOffsetXoverride,0
;   originOffsetYoverride,0
;   originOffsetZoverride,0
;   homeXdirOverride,-1
;   homeYdirOverride,-1
;   homeZdirOverride,-1
;   flipXoverride,1
;   flipYoverride,-1
;   flipZoverride,1
;   toolheadOffsets,0,0|0,0|0,0|0,0|0,0|0,0
;   overrideFirmwareConfiguration,0
;   firmwareTypeOverride,RepRap (Marlin/Repetier/Sprinter)
;   GPXconfigOverride,r2
;   baudRateOverride,115200
;   overridePrinterModels,0
;   printerModelsOverride
;   startingGcode,G28 ; home all axes,G1 Z30 F3000,M106 S1 [Enciende ventilador de capa],M190 S[bed1_temperature],M109 S[extruder0_temperature],G29 S1,G92 E0,M106 S0 (Apaga Ventilador de capa ],G1 X0 Y0 Z0.2 F3000 ; go outside printing area,G1 X60.0 E9.0  F1000.0 ; intro line,G1 X100.0 E12.5  F1000.0 ; intro line,G92 E0
;   layerChangeGcode,
;   retractionGcode,
;   toolChangeGcode,
;   endingGcode,G28 X0,G90 ; Posicion Absoluta,G1 Y305 F3600 ; Mueve Y a 305mm,M104 S0 ; turn off extruder,M140 S0 ; turn off bed,M84 ; disable motors,M107 ; turn off fan,
;   exportFileFormat,gcode
;   celebration,0
;   celebrationSong,Star Wars
;   postProcessing,
;   defaultSpeed,3600
;   outlineUnderspeed,0.4
;   solidInfillUnderspeed,0.65
;   supportUnderspeed,0.75
;   rapidXYspeed,5400
;   rapidZspeed,900
;   minBridgingArea,50
;   bridgingExtraInflation,1
;   bridgingExtrusionMultiplier,0.8
;   bridgingSpeedMultiplier,1.2
;   useFixedBridgingAngle,0
;   fixedBridgingAngle,0
;   applyBridgingToPerimeters,0
;   filamentDiameters,1.75|1.75|1.75|1.75|1.75|1.75
;   filamentPricesPerKg,16|16|16|16|16|16
;   filamentDensities,1.25|1.25|1.25|1.25|1.25|1.25
;   useMinPrintHeight,0
;   minPrintHeight,0
;   useMaxPrintHeight,0
;   maxPrintHeight,50
;   useDiaphragm,0
;   diaphragmLayerInterval,20
;   robustSlicing,1
;   mergeAllIntoSolid,0
;   onlyRetractWhenCrossingOutline,1
;   retractBetweenLayers,1
;   useRetractionMinTravel,1
;   retractionMinTravel,3
;   retractWhileWiping,1
;   onlyWipeOutlines,1
;   avoidCrossingOutline,1
;   maxMovementDetourFactor,5
;   toolChangeRetractionDistance,12
;   toolChangeExtraRestartDistance,-0.5
;   toolChangeRetractionSpeed,600
;   externalThinWallType,0
;   internalThinWallType,1
;   thinWallAllowedOverlapPercentage,10
;   singleExtrusionMinLength,1
;   singleExtrusionMinPrintingWidthPercentage,50
;   singleExtrusionMaxPrintingWidthPercentage,200
;   singleExtrusionEndpointExtension,0.2
;   horizontalSizeCompensation,0
G90
M82
M106 S0
G28 ; home all axes
G1 Z30 F3000
M106 S1 [Enciende ventilador de capa]
M190 S50
M109 S205
G29 S1
G92 E0
M106 S0 (Apaga Ventilador de capa ]
G1 X0 Y0 Z0.2 F3000 ; go outside printing area
G1 X60.0 E9.0  F1000.0 ; intro line
G1 X100.0 E12.5  F1000.0 ; intro line
G92 E0
; process Process1
; layer 1, Z = 0.250
T0
G92 E0.0000
G1 E-1.4000 F2400
; feature skirt
; tool H0.250 W0.456
G1 Z0.400 F900
G1 X148.663 Y173.228 F5400
G1 Z0.250 F900
G1 E0.0000 F2400
G92 E0.0000
G1 X146.772 Y171.337 E0.1242 F1800
G1 X146.772 Y148.663 E1.1774
G1 X148.663 Y146.772 E1.3016
G1 X171.337 Y146.772 E2.3547
G1 X173.228 Y148.663 E2.4790
G1 X173.228 Y171.337 E3.5321
G1 X171.337 Y173.228 E3.6563
G1 X148.663 Y173.228 E4.7095
G92 E0.0000
G1 E-1.4000 F2400
; feature inner perimeter
G1 Z0.650 F900
G1 X150.228 Y169.772 F5400
G1 X150.623 Y169.772
G1 X151.140 Y168.860
G1 Z0.250 F900
G1 E0.0000 F2400
G92 E0.0000
G1 X151.140 Y151.140 E0.8231 F1260
G1 X168.860 Y151.140 E1.6461
G1 X168.860 Y168.860 E2.4692
G1 X151.140 Y168.860 E3.2922
G1 X150.684 Y169.316 F5400
G92 E0.0000
G1 X150.684 Y150.684 E0.8654 F1260
G1 X169.316 Y150.684 E1.7308
G1 X169.316 Y169.316 E2.5962
G1 X150.684 Y169.316 E3.4617
; feature outer perimeter
G1 X150.228 Y169.772 F5400
G92 E0.0000
G1 X150.228 Y150.228 E0.9078 F720
G1 X169.772 Y150.228 E1.8156
G1 X169.772 Y169.772 E2.7233
G1 X150.228 Y169.772 E3.6311
G1 X150.228 Y167.772 F720
; feature solid layer
G1 X151.751 Y168.518 F5400
G92 E0.0000
G1 X151.482 Y168.249 E0.0177 F1170
G1 X151.482 Y167.604 E0.0476
G1 X152.396 Y168.518 E0.1077
G1 X153.041 Y168.518 E0.1376
G1 X151.482 Y166.959 E0.2400
G1 X151.482 Y166.314 E0.2700
G1 X153.686 Y168.518 E0.4147
G1 X154.331 Y168.518 E0.4447
G1 X151.482 Y165.669 E0.6318
G1 X151.482 Y165.024 E0.6618
G1 X154.976 Y168.518 E0.8912
G1 X155.620 Y168.518 E0.9212
G1 X151.482 Y164.380 E1.1930
G1 X151.482 Y163.735 E1.2230
G1 X156.265 Y168.518 E1.5372
G1 X156.910 Y168.518 E1.5671
G1 X151.482 Y163.090 E1.9237
G1 X151.482 Y162.445 E1.9536
G1 X157.555 Y168.518 E2.3526
G1 X158.200 Y168.518 E2.3825
G1 X151.482 Y161.800 E2.8238
G1 X151.482 Y161.155 E2.8537
G1 X158.845 Y168.518 E3.3374
G1 X159.490 Y168.518 E3.3673
G1 X151.482 Y160.510 E3.8933
G1 X151.482 Y159.865 E3.9233
G1 X160.135 Y168.518 E4.4917
G1 X160.779 Y168.518 E4.5216
G1 X151.482 Y159.221 E5.1323
G1 X151.482 Y158.576 E5.1623
G1 X161.424 Y168.518 E5.8154
G1 X162.069 Y168.518 E5.8453
G1 X151.482 Y157.931 E6.5408
G1 X151.482 Y157.286 E6.5707
G1 X162.714 Y168.518 E7.3085
G1 X163.359 Y168.518 E7.3385
G1 X151.482 Y156.641 E8.1186
G1 X151.482 Y155.996 E8.1486
G1 X164.004 Y168.518 E8.9711
G1 X164.649 Y168.518 E9.0011
G1 X151.482 Y155.351 E9.8659
G1 X151.482 Y154.706 E9.8959
G1 X165.294 Y168.518 E10.8031
G1 X165.938 Y168.518 E10.8331
G1 X151.482 Y154.062 E11.7827
G1 X151.482 Y153.417 E11.8127
G1 X166.583 Y168.518 E12.8046
G1 X167.228 Y168.518 E12.8346
G1 X151.482 Y152.772 E13.8689
G1 X151.482 Y152.127 E13.8988
G1 X167.873 Y168.518 E14.9755
G1 X168.518 Y168.518 E15.0055
G1 X151.482 Y151.482 E16.1245
G1 X152.127 Y151.482 E16.1545
G1 X168.518 Y167.873 E17.2312
G1 X168.518 Y167.228 E17.2611
G1 X152.772 Y151.482 E18.2954
G1 X153.417 Y151.482 E18.3254
G1 X168.518 Y166.583 E19.3174
G1 X168.518 Y165.938 E19.3473
G1 X154.062 Y151.482 E20.2969
G1 X154.706 Y151.482 E20.3269
G1 X168.518 Y165.294 E21.2341
G1 X168.518 Y164.649 E21.2641
G1 X155.351 Y151.482 E22.1289
G1 X155.996 Y151.482 E22.1589
G1 X168.518 Y164.004 E22.9814
G1 X168.518 Y163.359 E23.0114
G1 X156.641 Y151.482 E23.7915
G1 X157.286 Y151.482 E23.8215
G1 X168.518 Y162.714 E24.5593
G1 X168.518 Y162.069 E24.5892
G1 X157.931 Y151.482 E25.2847
G1 X158.576 Y151.482 E25.3146
G1 X168.518 Y161.424 E25.9677
G1 X168.518 Y160.779 E25.9977
G1 X159.221 Y151.482 E26.6084
G1 X159.865 Y151.482 E26.6383
G1 X168.518 Y160.135 E27.2067
G1 X168.518 Y159.490 E27.2367
G1 X160.510 Y151.482 E27.7627
G1 X161.155 Y151.482 E27.7926
G1 X168.518 Y158.845 E28.2763
G1 X168.518 Y158.200 E28.3062
G1 X161.800 Y151.482 E28.7475
G1 X162.445 Y151.482 E28.7774
G1 X168.518 Y157.555 E29.1764
G1 X168.518 Y156.910 E29.2063
G1 X163.090 Y151.482 E29.5629
G1 X163.735 Y151.482 E29.5928
G1 X168.518 Y156.265 E29.9070
G1 X168.518 Y155.620 E29.9370
G1 X164.380 Y151.482 E30.2088
G1 X165.025 Y151.482 E30.2388
G1 X168.518 Y154.975 E30.4682
G1 X168.518 Y154.331 E30.4982
G1 X165.669 Y151.482 E30.6853
G1 X166.314 Y151.482 E30.7153
G1 X168.518 Y153.686 E30.8600
G1 X168.518 Y153.041 E30.8900
G1 X166.959 Y151.482 E30.9924
G1 X167.604 Y151.482 E31.0223
G1 X168.518 Y152.396 E31.0823
G1 X168.518 Y151.751 E31.1123
G1 X168.249 Y151.482 E31.1300
G92 E0.0000
G1 E-1.4000 F2400
; layer 2, Z = 0.450
M106 S255
; feature inner perimeter
; tool H0.200 W0.480
G1 Z0.650 F900
G1 X151.200 Y168.800 F5400
G1 Z0.450 F900
G1 E0.0000 F2400
G92 E0.0000
G1 X151.200 Y151.200 E0.6884 F2520
G1 X168.800 Y151.200 E1.3768
G1 X168.800 Y168.800 E2.0652
G1 X151.200 Y168.800 E2.7536
G1 X150.720 Y169.280 F5400
G92 E0.0000
G1 X150.720 Y150.720 E0.7260 F2520
G1 X169.280 Y150.720 E1.4519
G1 X169.280 Y169.280 E2.1779
G1 X150.720 Y169.280 E2.9038
; feature outer perimeter
G1 X150.240 Y169.760 F5400
G92 E0.0000
G1 X150.240 Y150.240 E0.7635 F1440
G1 X169.760 Y150.240 E1.5270
G1 X169.760 Y169.760 E2.2905
G1 X150.240 Y169.760 E3.0540
G1 X150.240 Y167.760 F1440
; feature solid layer
G1 X151.560 Y152.148 F5400
G92 E0.0000
G1 X152.148 Y151.560 E0.0325 F2340
G1 X152.827 Y151.560 E0.0591
G1 X151.560 Y152.827 E0.1292
G1 X151.560 Y153.506 E0.1557
G1 X153.506 Y151.560 E0.2634
G1 X154.185 Y151.560 E0.2899
G1 X151.560 Y154.185 E0.4351
G1 X151.560 Y154.864 E0.4617
G1 X154.864 Y151.560 E0.6444
G1 X155.542 Y151.560 E0.6710
G1 X151.560 Y155.542 E0.8912
G1 X151.560 Y156.221 E0.9178
G1 X156.221 Y151.560 E1.1756
G1 X156.900 Y151.560 E1.2022
G1 X151.560 Y156.900 E1.4976
G1 X151.560 Y157.579 E1.5241
G1 X157.579 Y151.560 E1.8571
G1 X158.258 Y151.560 E1.8836
G1 X151.560 Y158.258 E2.2541
G1 X151.560 Y158.937 E2.2807
G1 X158.937 Y151.560 E2.6887
G1 X159.615 Y151.560 E2.7152
G1 X151.560 Y159.615 E3.1608
G1 X151.560 Y160.294 E3.1874
G1 X160.294 Y151.560 E3.6705
G1 X160.973 Y151.560 E3.6971
G1 X151.560 Y160.973 E4.2177
G1 X151.560 Y161.652 E4.2443
G1 X161.652 Y151.560 E4.8025
G1 X162.331 Y151.560 E4.8291
G1 X151.560 Y162.331 E5.4249
G1 X151.560 Y163.009 E5.4514
G1 X163.009 Y151.560 E6.0847
G1 X163.688 Y151.560 E6.1113
G1 X151.560 Y163.688 E6.7822
G1 X151.560 Y164.367 E6.8087
G1 X164.367 Y151.560 E7.5172
G1 X165.046 Y151.560 E7.5437
G1 X151.560 Y165.046 E8.2897
G1 X151.560 Y165.725 E8.3162
G1 X165.725 Y151.560 E9.0998
G1 X166.404 Y151.560 E9.1263
G1 X151.560 Y166.404 E9.9474
G1 X151.560 Y167.082 E9.9740
G1 X167.082 Y151.560 E10.8326
G1 X167.761 Y151.560 E10.8591
G1 X151.560 Y167.761 E11.7553
G1 X151.560 Y168.440 E11.7819
G1 X168.440 Y151.560 E12.7156
G1 X168.440 Y152.239 E12.7421
G1 X152.239 Y168.440 E13.6383
G1 X152.918 Y168.440 E13.6649
G1 X168.440 Y152.918 E14.5235
G1 X168.440 Y153.597 E14.5500
G1 X153.597 Y168.440 E15.3711
G1 X154.275 Y168.440 E15.3977
G1 X168.440 Y154.275 E16.1812
G1 X168.440 Y154.954 E16.2077
G1 X154.954 Y168.440 E16.9537
G1 X155.633 Y168.440 E16.9803
G1 X168.440 Y155.633 E17.6887
G1 X168.440 Y156.312 E17.7152
G1 X156.312 Y168.440 E18.3861
G1 X156.991 Y168.440 E18.4127
G1 X168.440 Y156.991 E19.0460
G1 X168.440 Y157.669 E19.0725
G1 X157.669 Y168.440 E19.6683
G1 X158.348 Y168.440 E19.6949
G1 X168.440 Y158.348 E20.2531
G1 X168.440 Y159.027 E20.2797
G1 X159.027 Y168.440 E20.8003
G1 X159.706 Y168.440 E20.8269
G1 X168.440 Y159.706 E21.3100
G1 X168.440 Y160.385 E21.3366
G1 X160.385 Y168.440 E21.7822
G1 X161.064 Y168.440 E21.8087
G1 X168.440 Y161.064 E22.2167
G1 X168.440 Y161.742 E22.2433
G1 X161.742 Y168.440 E22.6138
G1 X162.421 Y168.440 E22.6403
G1 X168.440 Y162.421 E22.9733
G1 X168.440 Y163.100 E22.9998
G1 X163.100 Y168.440 E23.2952
G1 X163.779 Y168.440 E23.3217
G1 X168.440 Y163.779 E23.5796
G1 X168.440 Y164.458 E23.6061
G1 X164.458 Y168.440 E23.8264
G1 X165.136 Y168.440 E23.8530
G1 X168.440 Y165.136 E24.0357
G1 X168.440 Y165.815 E24.0622
G1 X165.815 Y168.440 E24.2074
G1 X166.494 Y168.440 E24.2340
G1 X168.440 Y166.494 E24.3416
G1 X168.440 Y167.173 E24.3682
G1 X167.173 Y168.440 E24.4383
G1 X167.852 Y168.440 E24.4648
G1 X168.440 Y167.852 E24.4974
G92 E0.0000
G1 E-1.4000 F2400
; layer 3, Z = 0.650
; feature inner perimeter
G1 Z0.850 F900
G1 X151.200 Y168.800 F5400
G1 Z0.650 F900
G1 E0.0000 F2400
G92 E0.0000
G1 X151.200 Y151.200 E0.6884 F2520
G1 X168.800 Y151.200 E1.3768
G1 X168.800 Y168.800 E2.0652
G1 X151.200 Y168.800 E2.7536
G1 X150.720 Y169.280 F5400
G92 E0.0000
G1 X150.720 Y150.720 E0.7260 F2520
G1 X169.280 Y150.720 E1.4519
G1 X169.280 Y169.280 E2.1779
G1 X150.720 Y169.280 E2.9038
; feature outer perimeter
G1 X150.240 Y169.760 F5400
G92 E0.0000
G1 X150.240 Y150.240 E0.7635 F1440
G1 X169.760 Y150.240 E1.5270
G1 X169.760 Y169.760 E2.2905
G1 X150.240 Y169.760 E3.0540
G1 X150.240 Y167.760 F1440
; feature solid layer
G1 X152.148 Y168.440 F5400
G92 E0.0000
G1 X151.560 Y167.852 E0.0325 F2340
G1 X151.560 Y167.173 E0.0591
G1 X152.827 Y168.440 E0.1292
G1 X153.506 Y168.440 E0.1557
G1 X151.560 Y166.494 E0.2634
G1 X151.560 Y165.815 E0.2899
G1 X154.185 Y168.440 E0.4351
G1 X154.864 Y168.440 E0.4617
G1 X151.560 Y165.136 E0.6444
G1 X151.560 Y164.458 E0.6710
G1 X155.542 Y168.440 E0.8912
G1 X156.221 Y168.440 E0.9178
G1 X151.560 Y163.779 E1.1756
G1 X151.560 Y163.100 E1.2022
G1 X156.900 Y168.440 E1.4976
G1 X157.579 Y168.440 E1.5241
G1 X151.560 Y162.421 E1.8571
G1 X151.560 Y161.742 E1.8836
G1 X158.258 Y168.440 E2.2541
G1 X158.936 Y168.440 E2.2806
G1 X151.560 Y161.064 E2.6887
G1 X151.560 Y160.385 E2.7152
G1 X159.615 Y168.440 E3.1608
G1 X160.294 Y168.440 E3.1874
G1 X151.560 Y159.706 E3.6705
G1 X151.560 Y159.027 E3.6970
G1 X160.973 Y168.440 E4.2177
G1 X161.652 Y168.440 E4.2443
G1 X151.560 Y158.348 E4.8025
G1 X151.560 Y157.669 E4.8291
G1 X162.331 Y168.440 E5.4248
G1 X163.009 Y168.440 E5.4514
G1 X151.560 Y156.991 E6.0847
G1 X151.560 Y156.312 E6.1113
G1 X163.688 Y168.440 E6.7822
G1 X164.367 Y168.440 E6.8087
G1 X151.560 Y155.633 E7.5171
G1 X151.560 Y154.954 E7.5437
G1 X165.046 Y168.440 E8.2897
G1 X165.725 Y168.440 E8.3162
G1 X151.560 Y154.275 E9.0997
G1 X151.560 Y153.596 E9.1263
G1 X166.404 Y168.440 E9.9474
G1 X167.082 Y168.440 E9.9739
