; G-Code generated by Simplify3D(R) Version 4.1.2
; Aug 20, 2019 at 5:26:57 PM
; Settings Summary
;   processName,Process1
;   applyToModels,xyzCalibration_cube
;   profileName,P3Steel 300x200 DUET3D
;   profileVersion,2019-07-02 22:32:31
;   baseProfile,Default
;   printMaterial,PLA
;   printQuality,Medium
;   printExtruders,
;   extruderName,Primary Extruder
;   extruderToolheadNumber,0
;   extruderDiameter,0.4
;   extruderAutoWidth,1
;   extruderWidth,0.48
;   extrusionMultiplier,0.95
;   extruderUseRetract,1
;   extruderRetractionDistance,1.9
;   extruderExtraRestartDistance,0
;   extruderRetractionZLift,0.4
;   extruderRetractionSpeed,2400
;   extruderUseCoasting,0
;   extruderCoastingDistance,0.3
;   extruderUseWipe,1
;   extruderWipeDistance,1.5
;   primaryExtruder,0
;   layerHeight,0.2
;   topSolidLayers,3
;   bottomSolidLayers,3
;   perimeterOutlines,3
;   printPerimetersInsideOut,1
;   startPointOption,3
;   startPointOriginX,100
;   startPointOriginY,300
;   sequentialIslands,0
;   spiralVaseMode,0
;   firstLayerHeightPercentage,125
;   firstLayerWidthPercentage,95
;   firstLayerUnderspeed,0.5
;   useRaft,0
;   raftExtruder,0
;   raftTopLayers,1
;   raftBaseLayers,1
;   raftOffset,3
;   raftSeparationDistance,0.14
;   raftTopInfill,100
;   aboveRaftSpeedMultiplier,0.3
;   useSkirt,1
;   skirtExtruder,0
;   skirtLayers,1
;   skirtOutlines,1
;   skirtOffset,3
;   usePrimePillar,0
;   primePillarExtruder,999
;   primePillarWidth,12
;   primePillarLocation,7
;   primePillarSpeedMultiplier,1
;   useOozeShield,0
;   oozeShieldExtruder,999
;   oozeShieldOffset,2
;   oozeShieldOutlines,1
;   oozeShieldSidewallShape,1
;   oozeShieldSidewallAngle,30
;   oozeShieldSpeedMultiplier,1
;   infillExtruder,0
;   internalInfillPattern,Rectilinear
;   externalInfillPattern,Rectilinear
;   infillPercentage,25
;   outlineOverlapPercentage,25
;   infillExtrusionWidthPercentage,100
;   minInfillLength,2
;   infillLayerInterval,1
;   internalInfillAngles,45,-45
;   overlapInternalInfillAngles,0
;   externalInfillAngles,45,-45
;   generateSupport,1
;   supportExtruder,0
;   supportInfillPercentage,45
;   supportExtraInflation,0
;   supportBaseLayers,0
;   denseSupportExtruder,0
;   denseSupportLayers,0
;   denseSupportInfillPercentage,70
;   supportLayerInterval,1
;   supportHorizontalPartOffset,0.3
;   supportUpperSeparationLayers,1
;   supportLowerSeparationLayers,1
;   supportType,0
;   supportGridSpacing,4
;   maxOverhangAngle,89
;   supportAngles,0
;   temperatureName,Primary Extruder,Heated Bed
;   temperatureNumber,0,1
;   temperatureSetpointCount,1,1
;   temperatureSetpointLayers,1,1
;   temperatureSetpointTemperatures,205,50
;   temperatureStabilizeAtStartup,1,1
;   temperatureHeatedBed,0,1
;   fanLayers,1,2
;   fanSpeeds,0,100
;   blipFanToFullPower,0
;   adjustSpeedForCooling,1
;   minSpeedLayerTime,15
;   minCoolingSpeedSlowdown,20
;   increaseFanForCooling,0
;   minFanLayerTime,45
;   maxCoolingFanSpeed,100
;   increaseFanForBridging,0
;   bridgingFanSpeed,100
;   use5D,1
;   relativeEdistances,0
;   allowEaxisZeroing,1
;   independentExtruderAxes,0
;   includeM10123,0
;   stickySupport,1
;   applyToolheadOffsets,0
;   gcodeXoffset,0
;   gcodeYoffset,0
;   gcodeZoffset,0
;   overrideMachineDefinition,1
;   machineTypeOverride,0
;   strokeXoverride,212
;   strokeYoverride,305
;   strokeZoverride,220
;   originOffsetXoverride,0
;   originOffsetYoverride,0
;   originOffsetZoverride,0
;   homeXdirOverride,-1
;   homeYdirOverride,-1
;   homeZdirOverride,-1
;   flipXoverride,1
;   flipYoverride,-1
;   flipZoverride,1
;   toolheadOffsets,0,0|0,0|0,0|0,0|0,0|0,0
;   overrideFirmwareConfiguration,0
;   firmwareTypeOverride,RepRap (Marlin/Repetier/Sprinter)
;   GPXconfigOverride,r2
;   baudRateOverride,115200
;   overridePrinterModels,0
;   printerModelsOverride
;   startingGcode,G28 ; home all axes,G1 Z30 F3000,M106 S1 [Enciende ventilador de capa],M190 S[bed1_temperature],M109 S[extruder0_temperature],G29 S1,G92 E0,M106 S0 (Apaga Ventilador de capa ],G1 X0 Y0 Z0.2 F3000 ; go outside printing area,G1 X60.0 E9.0  F1000.0 ; intro line,G1 X100.0 E12.5  F1000.0 ; intro line,G92 E0
;   layerChangeGcode,
;   retractionGcode,
;   toolChangeGcode,
;   endingGcode,G28 X0,G90 ; Posicion Absoluta,G1 Y305 F3600 ; Mueve Y a 305mm,M104 S0 ; turn off extruder,M140 S0 ; turn off bed,M84 ; disable motors,M107 ; turn off fan,
;   exportFileFormat,gcode
;   celebration,0
;   celebrationSong,Star Wars
;   postProcessing,
;   defaultSpeed,3900
;   outlineUnderspeed,0.4
;   solidInfillUnderspeed,0.6
;   supportUnderspeed,0.7
;   rapidXYspeed,6000
;   rapidZspeed,900
;   minBridgingArea,50
;   bridgingExtraInflation,1
;   bridgingExtrusionMultiplier,0.8
;   bridgingSpeedMultiplier,1.2
;   useFixedBridgingAngle,0
;   fixedBridgingAngle,0
;   applyBridgingToPerimeters,0
;   filamentDiameters,1.75|1.75|1.75|1.75|1.75|1.75
;   filamentPricesPerKg,16|16|16|16|16|16
;   filamentDensities,1.25|1.25|1.25|1.25|1.25|1.25
;   useMinPrintHeight,0
;   minPrintHeight,0
;   useMaxPrintHeight,0
;   maxPrintHeight,50
;   useDiaphragm,0
;   diaphragmLayerInterval,20
;   robustSlicing,1
;   mergeAllIntoSolid,0
;   onlyRetractWhenCrossingOutline,1
;   retractBetweenLayers,1
;   useRetractionMinTravel,1
;   retractionMinTravel,3
;   retractWhileWiping,1
;   onlyWipeOutlines,1
;   avoidCrossingOutline,1
;   maxMovementDetourFactor,5
;   toolChangeRetractionDistance,12
;   toolChangeExtraRestartDistance,-0.5
;   toolChangeRetractionSpeed,600
;   externalThinWallType,0
;   internalThinWallType,1
;   thinWallAllowedOverlapPercentage,10
;   singleExtrusionMinLength,1
;   singleExtrusionMinPrintingWidthPercentage,50
;   singleExtrusionMaxPrintingWidthPercentage,200
;   singleExtrusionEndpointExtension,0.2
;   horizontalSizeCompensation,0
G90
M82
M106 S0
G28 ; home all axes
G1 Z30 F3000
M106 S1 [Enciende ventilador de capa]
M190 S50
M109 S205
G29 S1
G92 E0
M106 S0 (Apaga Ventilador de capa ]
G1 X0 Y0 Z0.2 F3000 ; go outside printing area
G1 X60.0 E9.0  F1000.0 ; intro line
G1 X100.0 E12.5  F1000.0 ; intro line
G92 E0
; process Process1
; layer 1, Z = 0.250
T0
G92 E0.0000
G1 E-1.9000 F2400
; feature skirt
; tool H0.250 W0.456
G1 Z0.400 F900
G1 X94.663 Y165.728 F6000
G1 Z0.250 F900
G1 E0.0000 F2400
G92 E0.0000
G1 X92.772 Y163.837 E0.1204 F1950
G1 X92.772 Y141.163 E1.1413
G1 X94.663 Y139.272 E1.2617
G1 X117.337 Y139.272 E2.2827
G1 X119.228 Y141.163 E2.4031
G1 X119.228 Y163.837 E3.4240
G1 X117.337 Y165.728 E3.5444
G1 X94.663 Y165.728 E4.5653
G92 E0.0000
G1 E-1.9000 F2400
; feature inner perimeter
G1 Z0.650 F900
G1 X96.228 Y162.272 F6000
G1 X96.623 Y162.272
G1 X97.140 Y161.360
G1 Z0.250 F900
G1 E0.0000 F2400
G92 E0.0000
G1 X97.140 Y143.640 E0.7979 F1365
G1 X114.860 Y143.640 E1.5957
G1 X114.860 Y161.360 E2.3936
G1 X97.140 Y161.360 E3.1914
G1 X96.684 Y161.816 F6000
G92 E0.0000
G1 X96.684 Y143.184 E0.8389 F1365
G1 X115.316 Y143.184 E1.6778
G1 X115.316 Y161.816 E2.5168
G1 X96.684 Y161.816 E3.3557
; feature outer perimeter
G1 X96.228 Y162.272 F6000
G92 E0.0000
G1 X96.228 Y142.728 E0.8800 F780
G1 X115.772 Y142.728 E1.7600
G1 X115.772 Y162.272 E2.6400
G1 X96.228 Y162.272 E3.5199
G1 X96.228 Y160.772 F780
; feature solid layer
G1 X97.751 Y161.018 F6000
G92 E0.0000
G1 X97.482 Y160.749 E0.0171 F1170
G1 X97.482 Y160.104 E0.0462
G1 X98.396 Y161.018 E0.1044
G1 X99.041 Y161.018 E0.1334
G1 X97.482 Y159.459 E0.2327
G1 X97.482 Y158.814 E0.2617
G1 X99.686 Y161.018 E0.4020
G1 X100.331 Y161.018 E0.4311
G1 X97.482 Y158.169 E0.6125
G1 X97.482 Y157.524 E0.6415
G1 X100.976 Y161.018 E0.8639
G1 X101.620 Y161.018 E0.8930
G1 X97.482 Y156.880 E1.1565
G1 X97.482 Y156.235 E1.1855
G1 X102.265 Y161.018 E1.4901
G1 X102.910 Y161.018 E1.5192
G1 X97.482 Y155.590 E1.8648
G1 X97.482 Y154.945 E1.8938
G1 X103.555 Y161.018 E2.2805
G1 X104.200 Y161.018 E2.3096
G1 X97.482 Y154.300 E2.7373
G1 X97.482 Y153.655 E2.7664
G1 X104.845 Y161.018 E3.2352
G1 X105.490 Y161.018 E3.2643
G1 X97.482 Y153.010 E3.7742
G1 X97.482 Y152.365 E3.8032
G1 X106.135 Y161.018 E4.3542
G1 X106.779 Y161.018 E4.3832
G1 X97.482 Y151.721 E4.9752
G1 X97.482 Y151.076 E5.0043
G1 X107.424 Y161.018 E5.6373
G1 X108.069 Y161.018 E5.6664
G1 X97.482 Y150.431 E6.3405
G1 X97.482 Y149.786 E6.3696
G1 X108.714 Y161.018 E7.0848
G1 X109.359 Y161.018 E7.1138
G1 X97.482 Y149.141 E7.8701
G1 X97.482 Y148.496 E7.8991
G1 X110.004 Y161.018 E8.6965
G1 X110.649 Y161.018 E8.7255
G1 X97.482 Y147.851 E9.5639
G1 X97.482 Y147.206 E9.5930
G1 X111.294 Y161.018 E10.4724
G1 X111.938 Y161.018 E10.5015
G1 X97.482 Y146.562 E11.4220
G1 X97.482 Y145.917 E11.4510
G1 X112.583 Y161.018 E12.4126
G1 X113.228 Y161.018 E12.4417
G1 X97.482 Y145.272 E13.4443
G1 X97.482 Y144.627 E13.4734
G1 X113.873 Y161.018 E14.5171
G1 X114.518 Y161.018 E14.5461
G1 X97.482 Y143.982 E15.6309
G1 X98.127 Y143.982 E15.6600
G1 X114.518 Y160.373 E16.7037
G1 X114.518 Y159.728 E16.7327
G1 X98.772 Y143.982 E17.7354
G1 X99.417 Y143.982 E17.7644
G1 X114.518 Y159.083 E18.7260
G1 X114.518 Y158.438 E18.7551
G1 X100.062 Y143.982 E19.6756
G1 X100.706 Y143.982 E19.7046
G1 X114.518 Y157.794 E20.5841
G1 X114.518 Y157.149 E20.6131
G1 X101.351 Y143.982 E21.4515
G1 X101.996 Y143.982 E21.4806
G1 X114.518 Y156.504 E22.2779
G1 X114.518 Y155.859 E22.3069
G1 X102.641 Y143.982 E23.0632
G1 X103.286 Y143.982 E23.0923
G1 X114.518 Y155.214 E23.8075
G1 X114.518 Y154.569 E23.8365
G1 X103.931 Y143.982 E24.5107
G1 X104.576 Y143.982 E24.5397
G1 X114.518 Y153.924 E25.1728
G1 X114.518 Y153.279 E25.2018
G1 X105.221 Y143.982 E25.7939
G1 X105.865 Y143.982 E25.8229
G1 X114.518 Y152.635 E26.3738
G1 X114.518 Y151.990 E26.4029
G1 X106.510 Y143.982 E26.9128
G1 X107.155 Y143.982 E26.9418
G1 X114.518 Y151.345 E27.4107
G1 X114.518 Y150.700 E27.4397
G1 X107.800 Y143.982 E27.8675
G1 X108.445 Y143.982 E27.8965
G1 X114.518 Y150.055 E28.2832
G1 X114.518 Y149.410 E28.3122
G1 X109.090 Y143.982 E28.6579
G1 X109.735 Y143.982 E28.6869
G1 X114.518 Y148.765 E28.9915
G1 X114.518 Y148.120 E29.0205
G1 X110.380 Y143.982 E29.2840
G1 X111.025 Y143.982 E29.3131
G1 X114.518 Y147.475 E29.5355
G1 X114.518 Y146.831 E29.5646
G1 X111.669 Y143.982 E29.7460
G1 X112.314 Y143.982 E29.7750
G1 X114.518 Y146.186 E29.9153
G1 X114.518 Y145.541 E29.9444
G1 X112.959 Y143.982 E30.0436
G1 X113.604 Y143.982 E30.0727
G1 X114.518 Y144.896 E30.1308
G1 X114.518 Y144.251 E30.1599
G1 X114.249 Y143.982 E30.1770
G92 E0.0000
G1 E-1.9000 F2400
; layer 2, Z = 0.450
M106 S255
; feature inner perimeter
; tool H0.200 W0.480
G1 Z0.650 F900
G1 X97.200 Y161.300 F6000
G1 Z0.450 F900
G1 E0.0000 F2400
G92 E0.0000
G1 X97.200 Y143.700 E0.6673 F2730
G1 X114.800 Y143.700 E1.3347
G1 X114.800 Y161.300 E2.0020
G1 X97.200 Y161.300 E2.6693
G1 X96.720 Y161.780 F6000
G92 E0.0000
G1 X96.720 Y143.220 E0.7037 F2730
G1 X115.280 Y143.220 E1.4075
G1 X115.280 Y161.780 E2.1112
G1 X96.720 Y161.780 E2.8149
; feature outer perimeter
G1 X96.240 Y162.260 F6000
G92 E0.0000
G1 X96.240 Y142.740 E0.7401 F1560
G1 X115.760 Y142.740 E1.4803
G1 X115.760 Y162.260 E2.2204
G1 X96.240 Y162.260 E2.9605
G1 X96.240 Y160.760 F1560
; feature solid layer
G1 X97.560 Y144.648 F6000
G92 E0.0000
G1 X98.148 Y144.060 E0.0315 F2340
G1 X98.827 Y144.060 E0.0573
G1 X97.560 Y145.327 E0.1252
G1 X97.560 Y146.006 E0.1510
G1 X99.506 Y144.060 E0.2553
G1 X100.185 Y144.060 E0.2811
G1 X97.560 Y146.685 E0.4218
G1 X97.560 Y147.364 E0.4475
G1 X100.864 Y144.060 E0.6247
G1 X101.542 Y144.060 E0.6504
G1 X97.560 Y148.042 E0.8640
G1 X97.560 Y148.721 E0.8897
G1 X102.221 Y144.060 E1.1396
G1 X102.900 Y144.060 E1.1654
G1 X97.560 Y149.400 E1.4517
G1 X97.560 Y150.079 E1.4775
G1 X103.579 Y144.060 E1.8002
G1 X104.258 Y144.060 E1.8260
G1 X97.560 Y150.758 E2.1851
G1 X97.560 Y151.437 E2.2108
G1 X104.937 Y144.060 E2.6064
G1 X105.615 Y144.060 E2.6321
G1 X97.560 Y152.115 E3.0641
G1 X97.560 Y152.794 E3.0898
G1 X106.294 Y144.060 E3.5581
G1 X106.973 Y144.060 E3.5839
G1 X97.560 Y153.473 E4.0886
G1 X97.560 Y154.152 E4.1144
G1 X107.652 Y144.060 E4.6555
G1 X108.331 Y144.060 E4.6813
G1 X97.560 Y154.831 E5.2588
G1 X97.560 Y155.509 E5.2845
G1 X109.009 Y144.060 E5.8985
G1 X109.688 Y144.060 E5.9242
G1 X97.560 Y156.188 E6.5746
G1 X97.560 Y156.867 E6.6003
G1 X110.367 Y144.060 E7.2870
G1 X111.046 Y144.060 E7.3128
G1 X97.560 Y157.546 E8.0359
G1 X97.560 Y158.225 E8.0617
G1 X111.725 Y144.060 E8.8212
G1 X112.404 Y144.060 E8.8469
G1 X97.560 Y158.904 E9.6429
G1 X97.560 Y159.582 E9.6686
G1 X113.082 Y144.060 E10.5010
G1 X113.761 Y144.060 E10.5267
G1 X97.560 Y160.261 E11.3955
G1 X97.560 Y160.940 E11.4212
G1 X114.440 Y144.060 E12.3263
G1 X114.440 Y144.739 E12.3521
G1 X98.239 Y160.940 E13.2208
G1 X98.918 Y160.940 E13.2465
G1 X114.440 Y145.418 E14.0789
G1 X114.440 Y146.097 E14.1046
G1 X99.597 Y160.940 E14.9006
G1 X100.275 Y160.940 E14.9263
G1 X114.440 Y146.775 E15.6858
G1 X114.440 Y147.454 E15.7116
G1 X100.954 Y160.940 E16.4347
G1 X101.633 Y160.940 E16.4605
G1 X114.440 Y148.133 E17.1472
G1 X114.440 Y148.812 E17.1729
G1 X102.312 Y160.940 E17.8233
G1 X102.991 Y160.940 E17.8490
G1 X114.440 Y149.491 E18.4630
G1 X114.440 Y150.169 E18.4887
G1 X103.669 Y160.940 E19.0662
G1 X104.348 Y160.940 E19.0920
G1 X114.440 Y150.848 E19.6331
G1 X114.440 Y151.527 E19.6589
G1 X105.027 Y160.940 E20.1636
G1 X105.706 Y160.940 E20.1893
G1 X114.440 Y152.206 E20.6577
G1 X114.440 Y152.885 E20.6834
G1 X106.385 Y160.940 E21.1154
G1 X107.064 Y160.940 E21.1411
G1 X114.440 Y153.564 E21.5366
G1 X114.440 Y154.242 E21.5624
G1 X107.742 Y160.940 E21.9215
G1 X108.421 Y160.940 E21.9472
G1 X114.440 Y154.921 E22.2700
G1 X114.440 Y155.600 E22.2957
G1 X109.100 Y160.940 E22.5821
G1 X109.779 Y160.940 E22.6078
G1 X114.440 Y156.279 E22.8578
G1 X114.440 Y156.958 E22.8835
G1 X110.458 Y160.940 E23.0970
G1 X111.136 Y160.940 E23.1228
G1 X114.440 Y157.636 E23.2999
G1 X114.440 Y158.315 E23.3256
G1 X111.815 Y160.940 E23.4664
G1 X112.494 Y160.940 E23.4921
G1 X114.440 Y158.994 E23.5965
G1 X114.440 Y159.673 E23.6222
G1 X113.173 Y160.940 E23.6902
G1 X113.852 Y160.940 E23.7159
G1 X114.440 Y160.352 E23.7474
G92 E0.0000
G1 E-1.9000 F2400
; layer 3, Z = 0.650
; feature inner perimeter
G1 Z0.850 F900
G1 X97.200 Y161.300 F6000
G1 Z0.650 F900
G1 E0.0000 F2400
G92 E0.0000
G1 X97.200 Y143.700 E0.6673 F2730
G1 X114.800 Y143.700 E1.3347
G1 X114.800 Y161.300 E2.0020
G1 X97.200 Y161.300 E2.6693
G1 X96.720 Y161.780 F6000
G92 E0.0000
G1 X96.720 Y143.220 E0.7037 F2730
G1 X115.280 Y143.220 E1.4075
G1 X115.280 Y161.780 E2.1112
G1 X96.720 Y161.780 E2.8149
; feature outer perimeter
G1 X96.240 Y162.260 F6000
G92 E0.0000
G1 X96.240 Y142.740 E0.7401 F1560
G1 X115.760 Y142.740 E1.4803
G1 X115.760 Y162.260 E2.2204
G1 X96.240 Y162.260 E2.9605
G1 X96.240 Y160.760 F1560
; feature solid layer
G1 X98.148 Y160.940 F6000
G92 E0.0000
G1 X97.560 Y160.352 E0.0315 F2340
G1 X97.560 Y159.673 E0.0573
G1 X98.827 Y160.940 E0.1252
G1 X99.506 Y160.940 E0.1510
G1 X97.560 Y158.994 E0.2553
G1 X97.560 Y158.315 E0.2810
G1 X100.185 Y160.940 E0.4218
G1 X100.864 Y160.940 E0.4475
G1 X97.560 Y157.636 E0.6247
G1 X97.560 Y156.958 E0.6504
G1 X101.542 Y160.940 E0.8640
G1 X102.221 Y160.940 E0.8897
G1 X97.560 Y156.279 E1.1396
G1 X97.560 Y155.600 E1.1654
G1 X102.900 Y160.940 E1.4517
G1 X103.579 Y160.940 E1.4775
G1 X97.560 Y154.921 E1.8002
G1 X97.560 Y154.242 E1.8259
G1 X104.258 Y160.940 E2.1851
G1 X104.936 Y160.940 E2.2108
G1 X97.560 Y153.564 E2.6064
G1 X97.560 Y152.885 E2.6321
G1 X105.615 Y160.940 E3.0641
G1 X106.294 Y160.940 E3.0898
G1 X97.560 Y152.206 E3.5581
G1 X97.560 Y151.527 E3.5839
G1 X106.973 Y160.940 E4.0886
G1 X107.652 Y160.940 E4.1144
G1 X97.560 Y150.848 E4.6555
G1 X97.560 Y150.169 E4.6812
G1 X108.331 Y160.940 E5.2588
G1 X109.009 Y160.940 E5.2845
G1 X97.560 Y149.491 E5.8985
G1 X97.560 Y148.812 E5.9242
G1 X109.688 Y160.940 E6.5745
G1 X110.367 Y160.940 E6.6003
G1 X97.560 Y148.133 E7.2870
G1 X97.560 Y147.454 E7.3128
G1 X111.046 Y160.940 E8.0359
G1 X111.725 Y160.940 E8.0616
G1 X97.560 Y146.775 E8.8212
G1 X97.560 Y146.096 E8.8469
G1 X112.404 Y160.940 E9.6429
G1 X113.082 Y160.940 E9.6686
G1 X97.560 Y145.418 E10.5009
G1 X97.560 Y144.739 E10.5267
G1 X113.761 Y160.940 E11.3954
G1 X114.440 Y160.940 E11.4212
