; G-Code generated by Simplify3D(R) Version 4.1.2
; Jan 1, 2020 at 12:51:32 PM
; Settings Summary
;   processName,Process1
;   applyToModels,3DBenchy
;   profileName,P3Steel 320x320 DUET3D
;   profileVersion,2019-12-31 01:42:54
;   baseProfile,Default
;   printMaterial,PLA
;   printQuality,Medium
;   printExtruders,
;   extruderName,Primary Extruder
;   extruderToolheadNumber,0
;   extruderDiameter,0.4
;   extruderAutoWidth,1
;   extruderWidth,0.48
;   extrusionMultiplier,0.98
;   extruderUseRetract,1
;   extruderRetractionDistance,1.4
;   extruderExtraRestartDistance,0
;   extruderRetractionZLift,0.4
;   extruderRetractionSpeed,2400
;   extruderUseCoasting,0
;   extruderCoastingDistance,0.3
;   extruderUseWipe,1
;   extruderWipeDistance,2
;   primaryExtruder,0
;   layerHeight,0.2
;   topSolidLayers,3
;   bottomSolidLayers,3
;   perimeterOutlines,3
;   printPerimetersInsideOut,1
;   startPointOption,3
;   startPointOriginX,100
;   startPointOriginY,300
;   sequentialIslands,0
;   spiralVaseMode,0
;   firstLayerHeightPercentage,125
;   firstLayerWidthPercentage,95
;   firstLayerUnderspeed,0.5
;   useRaft,0
;   raftExtruder,0
;   raftTopLayers,1
;   raftBaseLayers,1
;   raftOffset,3
;   raftSeparationDistance,0.14
;   raftTopInfill,100
;   aboveRaftSpeedMultiplier,0.3
;   useSkirt,1
;   skirtExtruder,0
;   skirtLayers,1
;   skirtOutlines,1
;   skirtOffset,3
;   usePrimePillar,0
;   primePillarExtruder,999
;   primePillarWidth,12
;   primePillarLocation,7
;   primePillarSpeedMultiplier,1
;   useOozeShield,0
;   oozeShieldExtruder,999
;   oozeShieldOffset,2
;   oozeShieldOutlines,1
;   oozeShieldSidewallShape,1
;   oozeShieldSidewallAngle,30
;   oozeShieldSpeedMultiplier,1
;   infillExtruder,0
;   internalInfillPattern,Rectilinear
;   externalInfillPattern,Rectilinear
;   infillPercentage,20
;   outlineOverlapPercentage,25
;   infillExtrusionWidthPercentage,100
;   minInfillLength,2
;   infillLayerInterval,1
;   internalInfillAngles,45,-45
;   overlapInternalInfillAngles,0
;   externalInfillAngles,45,-45
;   generateSupport,0
;   supportExtruder,0
;   supportInfillPercentage,45
;   supportExtraInflation,0
;   supportBaseLayers,0
;   denseSupportExtruder,0
;   denseSupportLayers,0
;   denseSupportInfillPercentage,70
;   supportLayerInterval,1
;   supportHorizontalPartOffset,0.3
;   supportUpperSeparationLayers,1
;   supportLowerSeparationLayers,1
;   supportType,0
;   supportGridSpacing,4
;   maxOverhangAngle,89
;   supportAngles,0
;   temperatureName,Primary Extruder,Heated Bed
;   temperatureNumber,0,1
;   temperatureSetpointCount,1,1
;   temperatureSetpointLayers,1,1
;   temperatureSetpointTemperatures,205,50
;   temperatureStabilizeAtStartup,1,1
;   temperatureHeatedBed,0,1
;   fanLayers,1,2
;   fanSpeeds,0,100
;   blipFanToFullPower,0
;   adjustSpeedForCooling,1
;   minSpeedLayerTime,15
;   minCoolingSpeedSlowdown,20
;   increaseFanForCooling,0
;   minFanLayerTime,45
;   maxCoolingFanSpeed,100
;   increaseFanForBridging,0
;   bridgingFanSpeed,100
;   use5D,1
;   relativeEdistances,0
;   allowEaxisZeroing,1
;   independentExtruderAxes,0
;   includeM10123,0
;   stickySupport,1
;   applyToolheadOffsets,0
;   gcodeXoffset,0
;   gcodeYoffset,0
;   gcodeZoffset,0
;   overrideMachineDefinition,1
;   machineTypeOverride,0
;   strokeXoverride,320
;   strokeYoverride,320
;   strokeZoverride,420
;   originOffsetXoverride,0
;   originOffsetYoverride,0
;   originOffsetZoverride,0
;   homeXdirOverride,-1
;   homeYdirOverride,-1
;   homeZdirOverride,-1
;   flipXoverride,1
;   flipYoverride,-1
;   flipZoverride,1
;   toolheadOffsets,0,0|0,0|0,0|0,0|0,0|0,0
;   overrideFirmwareConfiguration,0
;   firmwareTypeOverride,RepRap (Marlin/Repetier/Sprinter)
;   GPXconfigOverride,r2
;   baudRateOverride,115200
;   overridePrinterModels,0
;   printerModelsOverride
;   startingGcode,G28 ; home all axes,G1 Z30 F3000,M106 S1 [Enciende ventilador de capa],M190 S[bed1_temperature],M109 S[extruder0_temperature],G29 S1,G92 E0,M106 S0 (Apaga Ventilador de capa ],G1 X0 Y0 Z0.2 F3000 ; go outside printing area,G1 X60.0 E9.0  F1000.0 ; intro line,G1 X100.0 E12.5  F1000.0 ; intro line,G92 E0
;   layerChangeGcode,
;   retractionGcode,
;   toolChangeGcode,
;   endingGcode,G28 X0,G90 ; Posicion Absoluta,G1 Y305 F3600 ; Mueve Y a 305mm,M104 S0 ; turn off extruder,M140 S0 ; turn off bed,M84 ; disable motors,M107 ; turn off fan,
;   exportFileFormat,gcode
;   celebration,0
;   celebrationSong,Star Wars
;   postProcessing,
;   defaultSpeed,3600
;   outlineUnderspeed,0.4
;   solidInfillUnderspeed,0.65
;   supportUnderspeed,0.75
;   rapidXYspeed,5400
;   rapidZspeed,900
;   minBridgingArea,50
;   bridgingExtraInflation,1
;   bridgingExtrusionMultiplier,0.8
;   bridgingSpeedMultiplier,1.2
;   useFixedBridgingAngle,0
;   fixedBridgingAngle,0
;   applyBridgingToPerimeters,0
;   filamentDiameters,1.75|1.75|1.75|1.75|1.75|1.75
;   filamentPricesPerKg,16|16|16|16|16|16
;   filamentDensities,1.25|1.25|1.25|1.25|1.25|1.25
;   useMinPrintHeight,0
;   minPrintHeight,0
;   useMaxPrintHeight,0
;   maxPrintHeight,50
;   useDiaphragm,0
;   diaphragmLayerInterval,20
;   robustSlicing,1
;   mergeAllIntoSolid,0
;   onlyRetractWhenCrossingOutline,1
;   retractBetweenLayers,1
;   useRetractionMinTravel,1
;   retractionMinTravel,3
;   retractWhileWiping,1
;   onlyWipeOutlines,1
;   avoidCrossingOutline,1
;   maxMovementDetourFactor,5
;   toolChangeRetractionDistance,12
;   toolChangeExtraRestartDistance,-0.5
;   toolChangeRetractionSpeed,600
;   externalThinWallType,0
;   internalThinWallType,1
;   thinWallAllowedOverlapPercentage,10
;   singleExtrusionMinLength,1
;   singleExtrusionMinPrintingWidthPercentage,50
;   singleExtrusionMaxPrintingWidthPercentage,200
;   singleExtrusionEndpointExtension,0.2
;   horizontalSizeCompensation,0
G90
M82
M106 S0
G28 ; home all axes
G1 Z30 F3000
M106 S1 [Enciende ventilador de capa]
M190 S50
M109 S205
G29 S1
G92 E0
M106 S0 (Apaga Ventilador de capa ]
G1 X0 Y0 Z0.2 F3000 ; go outside printing area
G1 X60.0 E9.0  F1000.0 ; intro line
G1 X100.0 E12.5  F1000.0 ; intro line
G92 E0
; process Process1
; layer 1, Z = 0.250
T0
G92 E0.0000
G1 E-1.4000 F2400
; feature skirt
; tool H0.250 W0.456
G1 Z0.400 F900
G1 X134.711 Y169.763 F5400
G1 Z0.250 F900
G1 E0.0000 F2400
G92 E0.0000
G1 X134.093 Y169.577 E0.0300 F1800
G1 X133.830 Y169.472 E0.0431
G1 X133.379 Y169.243 E0.0667
G1 X133.174 Y169.119 E0.0778
G1 X132.748 Y168.817 E0.1020
G1 X132.527 Y168.629 E0.1155
G1 X132.106 Y168.198 E0.1435
G1 X131.931 Y167.986 E0.1563
G1 X131.637 Y167.559 E0.1803
G1 X131.514 Y167.349 E0.1916
G1 X131.293 Y166.897 E0.2150
G1 X131.194 Y166.638 E0.2279
G1 X131.008 Y165.999 E0.2588
G1 X130.951 Y165.697 E0.2731
G1 X130.895 Y165.084 E0.3017
G1 X130.888 Y164.934 E0.3086
G1 X130.891 Y154.896 E0.7749
G1 X130.910 Y154.653 E0.7862
G1 X131.016 Y153.957 E0.8189
G1 X131.115 Y153.594 E0.8364
G1 X131.446 Y152.775 E0.8774
G1 X131.645 Y152.420 E0.8963
G1 X132.110 Y151.790 E0.9327
G1 X132.395 Y151.493 E0.9518
G1 X133.072 Y150.945 E0.9922
G1 X133.413 Y150.734 E1.0109
G1 X134.098 Y150.418 E1.0459
G1 X134.469 Y150.299 E1.0640
G1 X135.255 Y150.147 E1.1012
G1 X135.463 Y150.120 E1.1110
G1 X159.005 Y148.685 E2.2065
G1 X159.083 Y148.682 E2.2101
G1 X160.614 Y148.663 E2.2812
G1 X160.777 Y148.669 E2.2888
G1 X162.506 Y148.822 E2.3694
G1 X162.642 Y148.840 E2.3758
G1 X163.680 Y149.022 E2.4247
G1 X163.783 Y149.043 E2.4296
G1 X164.879 Y149.310 E2.4820
G1 X164.980 Y149.338 E2.4869
G1 X166.009 Y149.660 E2.5369
G1 X166.105 Y149.694 E2.5417
G1 X167.032 Y150.050 E2.5878
G1 X167.133 Y150.093 E2.5929
G1 X168.238 Y150.606 E2.6495
G1 X168.331 Y150.653 E2.6543
G1 X169.160 Y151.105 E2.6982
G1 X169.249 Y151.158 E2.7030
G1 X170.247 Y151.789 E2.7578
G1 X170.336 Y151.849 E2.7628
G1 X171.175 Y152.461 E2.8111
G1 X171.264 Y152.531 E2.8163
G1 X172.217 Y153.335 E2.8742
G1 X172.298 Y153.408 E2.8793
G1 X172.996 Y154.081 E2.9243
G1 X173.072 Y154.160 E2.9294
G1 X173.924 Y155.101 E2.9884
G1 X173.991 Y155.180 E2.9932
G1 X174.515 Y155.839 E3.0323
G1 X174.560 Y155.899 E3.0358
G1 X174.984 Y156.487 E3.0694
G1 X175.040 Y156.570 E3.0741
G1 X175.751 Y157.696 E3.1360
G1 X175.842 Y157.861 E3.1447
G1 X176.043 Y158.283 E3.1664
G1 X176.158 Y158.608 E3.1824
G1 X176.341 Y159.380 E3.2193
G1 X176.381 Y159.853 E3.2413
G1 X176.334 Y160.636 E3.2777
G1 X176.271 Y160.996 E3.2947
G1 X176.106 Y161.554 E3.3218
G1 X175.973 Y161.874 E3.3379
G1 X175.577 Y162.595 E3.3760
G1 X175.512 Y162.703 E3.3819
G1 X174.928 Y163.593 E3.4314
G1 X174.861 Y163.689 E3.4368
G1 X174.077 Y164.715 E3.4968
G1 X174.010 Y164.796 E3.5017
G1 X173.430 Y165.461 E3.5426
G1 X173.364 Y165.532 E3.5471
G1 X172.582 Y166.326 E3.5989
G1 X172.509 Y166.395 E3.6036
G1 X171.790 Y167.040 E3.6484
G1 X171.712 Y167.105 E3.6531
G1 X170.867 Y167.771 E3.7031
G1 X170.786 Y167.831 E3.7078
G1 X169.975 Y168.392 E3.7536
G1 X169.894 Y168.445 E3.7581
G1 X169.061 Y168.951 E3.8034
G1 X168.980 Y168.997 E3.8077
G1 X168.111 Y169.458 E3.8534
G1 X168.028 Y169.499 E3.8577
G1 X167.205 Y169.877 E3.8998
G1 X167.116 Y169.914 E3.9043
G1 X166.116 Y170.303 E3.9541
G1 X166.024 Y170.335 E3.9586
G1 X165.153 Y170.614 E4.0011
G1 X165.065 Y170.640 E4.0054
G1 X164.156 Y170.874 E4.0489
G1 X164.072 Y170.894 E4.0529
G1 X163.193 Y171.071 E4.0946
G1 X163.104 Y171.087 E4.0988
G1 X162.196 Y171.218 E4.1414
G1 X162.108 Y171.228 E4.1455
G1 X161.195 Y171.309 E4.1881
G1 X161.106 Y171.315 E4.1922
G1 X160.209 Y171.345 E4.2339
G1 X160.118 Y171.345 E4.2381
G1 X159.201 Y171.325 E4.2808
G1 X159.140 Y171.322 E4.2836
G1 X135.519 Y169.883 E5.3828
G1 X135.420 Y169.874 E5.3874
G1 X134.982 Y169.820 E5.4079
G1 X134.711 Y169.763 E5.4207
G92 E0.0000
G1 E-1.4000 F2400
; feature inner perimeter
G1 Z0.650 F900
G1 X135.559 Y166.409 F5400
G1 X135.247 Y166.315
G1 X135.061 Y166.221
G1 X134.882 Y166.094
G1 X134.864 Y166.076
G1 X135.054 Y161.479
G1 X135.027 Y161.408
G1 X134.954 Y161.133
G1 X134.859 Y160.529
G1 X134.837 Y160.176
G1 X134.835 Y159.805
G1 X134.855 Y159.444
G1 X134.895 Y159.111
G1 X134.955 Y158.792
G1 X135.035 Y158.502
G1 X135.131 Y158.241
G1 X135.194 Y158.110
G1 X135.259 Y156.544
G1 Z0.250 F900
G1 E0.0000 F2400
G92 E0.0000
G1 X135.259 Y155.105 E0.0668 F1260
G1 X135.291 Y154.894 E0.0767
G1 X135.315 Y154.822 E0.0803
G1 X135.363 Y154.724 E0.0853
G1 X135.422 Y154.650 E0.0897
G1 X135.467 Y154.608 E0.0926
G1 X135.537 Y154.559 E0.0966
G1 X135.596 Y154.529 E0.0996
G1 X135.630 Y154.515 E0.1013
G1 X135.730 Y154.489 E0.1062
G1 X135.869 Y154.472 E0.1126
G1 X159.216 Y153.049 E1.1991
G1 X160.013 Y153.023 E1.2361
G1 X160.535 Y153.031 E1.2604
G1 X161.049 Y153.059 E1.2843
G1 X161.994 Y153.161 E1.3284
G1 X162.838 Y153.309 E1.3682
G1 X163.760 Y153.533 E1.4123
G1 X164.619 Y153.802 E1.4541
G1 X165.389 Y154.098 E1.4924
G1 X165.831 Y154.292 E1.5148
G1 X166.307 Y154.525 E1.5395
G1 X166.989 Y154.897 E1.5755
G1 X167.835 Y155.432 E1.6220
G1 X168.531 Y155.939 E1.6621
G1 X168.942 Y156.273 E1.6867
G1 X169.323 Y156.607 E1.7102
G1 X170.088 Y157.345 E1.7595
G1 X167.709 Y157.348 E1.8700
G1 X167.293 Y157.409 E1.8895
G1 X166.862 Y157.574 E1.9110
G1 X166.778 Y157.642 E1.9160
G1 X166.402 Y157.431 E1.9360
G1 X165.929 Y157.327 E1.9585
G1 X165.478 Y157.386 E1.9796
G1 X165.018 Y157.609 E2.0034
G1 X164.554 Y158.091 E2.0345
G1 X164.418 Y157.907 E2.0450
G1 X164.168 Y157.683 E2.0606
G1 X163.846 Y157.492 E2.0781
G1 X163.367 Y157.355 E2.1012
G1 X163.003 Y157.339 E2.1181
G1 X162.673 Y157.392 E2.1336
G1 X162.343 Y157.517 E2.1500
G1 X162.163 Y157.648 E2.1603
G1 X161.566 Y157.352 E2.1913
G1 X160.945 Y157.342 E2.2201
G1 X160.395 Y157.579 E2.2479
G1 X160.215 Y157.729 E2.2588
G1 X159.697 Y157.437 E2.2864
G1 X159.331 Y157.345 E2.3039
G1 X158.984 Y157.341 E2.3201
G1 X158.645 Y157.409 E2.3361
G1 X158.341 Y157.539 E2.3515
G1 X158.059 Y157.726 E2.3672
G1 X157.792 Y158.010 E2.3853
G1 X157.565 Y158.464 E2.4089
G1 X157.521 Y158.937 E2.4310
G1 X157.569 Y159.284 E2.4472
G1 X157.707 Y159.691 E2.4672
G1 X158.039 Y160.288 E2.4989
G1 X157.828 Y160.507 E2.5130
G1 X157.557 Y160.370 E2.5271
G1 X157.165 Y160.255 E2.5461
G1 X156.752 Y160.228 E2.5653
G1 X156.761 Y159.980 E2.5769
G1 X156.739 Y159.402 E2.6037
G1 X156.687 Y158.982 E2.6234
G1 X156.534 Y158.339 E2.6541
G1 X156.407 Y157.997 E2.6710
G1 X156.264 Y157.694 E2.6866
G1 X156.097 Y157.409 E2.7019
G1 X155.906 Y157.142 E2.7172
G1 X155.687 Y156.891 E2.7327
G1 X155.397 Y156.628 E2.7509
G1 X155.134 Y156.440 E2.7659
G1 X154.831 Y156.271 E2.7820
G1 X154.284 Y156.073 E2.8090
G1 X153.614 Y155.952 E2.8406
G1 X153.005 Y155.910 E2.8690
G1 X151.563 Y155.896 E2.9359
G1 X151.087 Y155.977 E2.9584
G1 X150.678 Y156.157 E2.9791
G1 X150.361 Y156.403 E2.9978
G1 X150.143 Y156.712 E3.0153
G1 X149.833 Y156.401 E3.0357
G1 X149.584 Y156.209 E3.0503
G1 X149.308 Y156.048 E3.0652
G1 X149.000 Y155.919 E3.0807
G1 X148.642 Y155.819 E3.0979
G1 X148.286 Y155.759 E3.1147
G1 X147.707 Y155.728 E3.1416
G1 X147.278 Y155.756 E3.1616
G1 X146.895 Y155.821 E3.1796
G1 X146.506 Y155.933 E3.1984
G1 X146.068 Y156.133 E3.2208
G1 X145.815 Y156.312 E3.2352
G1 X145.508 Y156.069 E3.2534
G1 X145.061 Y155.929 E3.2751
G1 X144.760 Y155.901 E3.2892
G1 X141.518 Y155.916 E3.4398
G1 X140.878 Y155.867 E3.4696
G1 X140.309 Y155.942 E3.4963
G1 X139.776 Y156.267 E3.5252
G1 X139.682 Y156.392 E3.5325
G1 X139.297 Y156.143 E3.5538
G1 X139.027 Y156.006 E3.5679
G1 X138.725 Y155.891 E3.5829
G1 X138.399 Y155.807 E3.5985
G1 X138.051 Y155.754 E3.6149
G1 X137.695 Y155.732 E3.6314
G1 X137.241 Y155.745 E3.6525
G1 X136.630 Y155.846 E3.6813
G1 X136.287 Y155.955 E3.6980
G1 X135.982 Y156.084 E3.7134
G1 X135.684 Y156.246 E3.7291
G1 X135.259 Y156.544 E3.7533
G92 E0.0000
G1 E-1.4000 F2400
G1 Z0.650 F900
G1 X137.394 Y158.954 F5400
G1 Z0.250 F900
G1 E0.0000 F2400
G92 E0.0000
G1 X137.903 Y159.260 E0.0276 F1260
G1 X138.169 Y159.392 E0.0414
G1 X138.572 Y159.520 E0.0610
G1 X139.068 Y159.546 E0.0841
G1 X139.563 Y159.395 E0.1081
G1 X139.890 Y159.172 E0.1265
G1 X140.071 Y158.982 E0.1387
G1 X140.314 Y159.119 E0.1517
G1 X140.882 Y159.192 E0.1782
G1 X141.143 Y159.162 E0.1904
G1 X141.159 Y161.903 E0.3177
G1 X141.112 Y162.685 E0.3541
G1 X141.288 Y163.295 E0.3836
G1 X141.670 Y163.716 E0.4100
G1 X142.011 Y163.907 E0.4282
G1 X142.351 Y164.018 E0.4448
G1 X142.843 Y164.061 E0.4677
G1 X143.398 Y163.934 E0.4942
G1 X143.756 Y163.713 E0.5137
G1 X144.010 Y163.456 E0.5305
G1 X144.188 Y163.171 E0.5461
G1 X144.308 Y162.863 E0.5614
G1 X144.384 Y162.436 E0.5816
G1 X144.366 Y161.515 E0.6244
G1 X144.366 Y159.151 E0.7342
G1 X144.871 Y159.116 E0.7577
G1 X145.282 Y159.021 E0.7773
G1 X145.566 Y158.871 E0.7922
G1 X145.847 Y159.125 E0.8098
G1 X145.748 Y159.520 E0.8287
G1 X145.742 Y159.867 E0.8449
G1 X145.797 Y160.196 E0.8603
G1 X146.007 Y160.697 E0.8856
G1 X145.830 Y160.763 E0.8944
G1 X145.517 Y161.010 E0.9129
G1 X145.268 Y161.320 E0.9314
G1 X145.085 Y161.793 E0.9549
G1 X145.057 Y162.301 E0.9785
G1 X145.158 Y162.771 E1.0009
G1 X145.358 Y163.185 E1.0222
G1 X145.675 Y163.552 E1.0447
G1 X146.037 Y163.808 E1.0653
G1 X146.332 Y163.952 E1.0806
G1 X146.728 Y164.083 E1.0999
G1 X147.223 Y164.174 E1.1233
G1 X147.874 Y164.196 E1.1536
G1 X148.230 Y164.170 E1.1702
G1 X148.541 Y164.116 E1.1849
G1 X148.841 Y164.035 E1.1993
G1 X149.154 Y163.912 E1.2149
G1 X149.545 Y163.690 E1.2358
G1 X149.812 Y163.488 E1.2513
G1 X150.128 Y163.183 E1.2717
G1 X150.505 Y163.686 E1.3009
G1 X150.973 Y163.974 E1.3264
G1 X151.468 Y164.066 E1.3498
G1 X152.065 Y164.016 E1.3776
G1 X152.869 Y164.024 E1.4150
G1 X153.460 Y163.994 E1.4425
G1 X153.971 Y163.920 E1.4665
G1 X154.419 Y163.803 E1.4880
G1 X154.742 Y163.675 E1.5041
G1 X154.966 Y163.549 E1.5161
G1 X155.305 Y163.934 E1.5399
G1 X155.703 Y164.229 E1.5629
G1 X156.072 Y164.393 E1.5817
G1 X156.438 Y164.483 E1.5992
G1 X156.814 Y164.508 E1.6167
G1 X157.190 Y164.467 E1.6342
G1 X157.580 Y164.353 E1.6531
G1 X158.032 Y164.100 E1.6772
G1 X158.165 Y163.981 E1.6854
G1 X158.635 Y164.181 E1.7092
G1 X159.218 Y164.238 E1.7364
G1 X159.657 Y164.096 E1.7578
G1 X159.961 Y163.910 E1.7744
G1 X160.089 Y163.783 E1.7827
G1 X160.463 Y164.064 E1.8045
G1 X160.857 Y164.212 E1.8240
G1 X161.326 Y164.247 E1.8458
G1 X161.157 Y164.757 E1.8708
G1 X161.143 Y165.130 E1.8881
G1 X161.190 Y165.445 E1.9029
